packages/icons/src/components/Icon/assets/small-solid/home.svg

<svg width="16" height="16" viewBox="0 0 16 16" fill="none" xmlns="http://www.w3.org/2000/svg">
<path fill-rule="evenodd" clip-rule="evenodd" d="M7.38128 1.25628C7.72299 0.914573 8.27701 0.914573 8.61872 1.25628L14.7437 7.38128C14.9939 7.63153 15.0688 8.00788 14.9334 8.33485C14.7979 8.66181 14.4789 8.875 14.125 8.875H13.25V14.125C13.25 14.6082 12.8582 15 12.375 15H10.625C10.1417 15 9.74999 14.6082 9.74999 14.125V11.5C9.74999 11.0168 9.35824 10.625 8.875 10.625H7.125C6.64176 10.625 6.25001 11.0168 6.25001 11.5V14.125C6.25001 14.6082 5.85826 15 5.37501 15H3.62502C3.14177 15 2.75002 14.6082 2.75002 14.125V8.875H1.87502C1.52112 8.875 1.20206 8.66181 1.06663 8.33485C0.931198 8.00788 1.00606 7.63153 1.25631 7.38128L7.38128 1.25628Z" />
</svg>

<svg xmlns="http://www.w3.org/2000/svg" width="16" height="16" fill="none" viewBox="0 0 16 16">
    <path d="M7.381 1.256a.875.875 0 0 1 1.238 0l6.125 6.125a.875.875 0 0 1-.619 1.494h-.875v5.25a.875.875 0 0 1-.875.875h-1.75a.875.875 0 0 1-.875-.875V11.5a.875.875 0 0 0-.875-.875h-1.75a.875.875 0 0 0-.875.875v2.625a.875.875 0 0 1-.875.875h-1.75a.875.875 0 0 1-.875-.875v-5.25h-.875a.875.875 0 0 1-.619-1.494z" clip-rule="evenodd"/>
</svg>
